X: 7500
T:Never Love Thee More
M:6/8
O:England
A:North-West
R:Slow air
K:G
G/E/|\
D2E G2A| B>cB D2G/A/| BB2 A2G| E3-E2 G/E/|\
D2E G2A| B>cB D2G/A/| BB2 AG2| "Pause"d3-d2 d/c/|\
B2A G2G| c2d e2d| dB2 A2G| "Pause"E3-E2 (G/E/)|\
D2E G2A| B>cd e2d| dB2 A2 G/F/| G3-G2|]
